X:1
C:Unger
L:1/8
M:3/4
I:linebreak $
K:G
V:1 treble nm="Fiddle" snm="Fiddle"
V:1
 Ac | d3 c BA | F4 EF | G3 F ED | B,2 D3 B,2 |"D" A,2 D2 F2 | A2 d2 f2 |$ z2 f3 g2 | e4 Ac |]1 %9
 A2 c2 e2 | d4 FA || A3 F2 D2 |"D7/F" d4 A2 |"G" B3 c d2 |$ z2"D" A2 F3 | F3 E2 D2 | B,4 G,2 | %17
 A,6 | A4 FE |"D" D2 F2 A2 |"C" =c6 |$ B3 c d2 | A2 F2 D2 | A,2 D2 F2 | A2 d2 F2 | E3 D2 C2 | D6 |] %27
